X: 273
T:Llef Harlech [Harlech's cry]
R:?
C:trad, second part variation by Antwn Owen Hicks
D:Carreg Lafar 'Hyn', Sain SCD 2205
H:&gt;    From: Keith Davies Jones &lt;kjones@cc.umanitoba.ca&gt;
H:&gt; This tune was noted down sometime in the late eighteenth century by a
H:&gt; German violinist, Johann Baptist Malchair, who heard it sung 'in the
H:&gt; vicinity of Harlech Castle'. In 1807, Dr William Crotch, professor of
H:sic
H:&gt; at Oxford University,  published it in a compilation of lectures entit
H:d
H:&gt; 'Specimens of Various Styles of Music'. In 1963, Sir Thomas and Lady
H:&gt; Parry-Williams wrote the words 'Beth yw'r haf i mi?',  and the song
H:&gt; came home again to Wales.
H:&gt; (Huw Williams, 'Canu'r Bobol',  1978)
Z:Lesl
M:C|
K:Edor
|:eBBA B2AG|FGAB GFE2|EBBA B2AG|FGAF E4:|
|:EBBA B2AB|d3d cBAF|EBBA B2AB|dBAF E4:||

